public/svg_assets/socials_icons/linktr.svg

<svg width="65" height="66" viewBox="0 0 65 66" fill="none" xmlns="http://www.w3.org/2000/svg">
<path d="M32.5 66C50.4492 66 65 51.2254 65 33C65 14.7746 50.4492 0 32.5 0C14.5507 0 0 14.7746 0 33C0 51.2254 14.5507 66 32.5 66Z" fill="#A1A1A1"/>
<path d="M17 27.5299H26.0696L19.6219 21.3585L23.1896 17.6757L29.3364 24.0198V15H34.6664V24.0198L40.813 17.6901L44.3778 21.3585L37.9332 27.5155H47V32.608H37.8815L44.3694 38.9376L40.813 42.5342L32.0014 33.6438L23.1896 42.5342L19.6219 38.9522L26.1124 32.6224H17V27.5299ZM29.3219 39.9158H34.6521V52H29.3219V39.9158Z" fill="white"/>
</svg>

<svg width="65" height="66" fill="none" xmlns="http://www.w3.org/2000/svg">
    <path d="M32.5 66C50.45 66 65 51.225 65 33S50.45 0 32.5 0 0 14.775 0 33s14.55 33 32.5 33Z" fill="#A1A1A1"/>
    <path d="M17 27.53h9.07l-6.448-6.172 3.568-3.682 6.146 6.344V15h5.33v9.02l6.147-6.33 3.565 3.668-6.445 6.157H47v5.093h-9.118l6.487 6.33-3.556 3.596-8.812-8.89-8.811 8.89-3.568-3.582 6.49-6.33H17V27.53Zm12.322 12.386h5.33V52h-5.33V39.916Z" fill="#fff"/>
</svg>
